packages/core/src/svgs/tokens/branded/VALOR.svg

<svg width="24" height="24" viewBox="0 0 24 24" fill="none" xmlns="http://www.w3.org/2000/svg">
<path d="M21.9945 2.11125L20.7489 4.80549C20.7407 4.82154 20.7281 4.83492 20.7124 4.84406C20.6964 4.85327 20.6781 4.85796 20.6596 4.85764H17.0946C17.0791 4.85809 17.0636 4.85482 17.0496 4.84811C17.0356 4.84141 17.0233 4.83144 17.0139 4.81906C17.0056 4.80769 17.0008 4.79408 17.0001 4.77996C16.9994 4.76586 17.0031 4.75188 17.0103 4.73978L17.0139 4.73336L18.3068 2.05268C18.3148 2.03665 18.3271 2.02325 18.3424 2.0141C18.3583 2.00493 18.3763 2.00023 18.3946 2.00053H21.9052C21.921 2.00053 21.936 2.0034 21.9495 2.00982C21.9639 2.01697 21.9752 2.02553 21.9852 2.03768C21.9929 2.04832 21.9977 2.06066 21.9994 2.07365C22.001 2.08661 21.9994 2.09906 21.9945 2.11125ZM19.0239 8.42904H8.15693L6.99264 5.57191H13.4112C13.4512 5.57191 13.4862 5.52476 13.4997 5.4862L14.6568 2.13696C14.6625 2.12198 14.6645 2.10585 14.6626 2.08995C14.6608 2.07403 14.6551 2.0588 14.6461 2.04553C14.6378 2.032 14.6263 2.02077 14.6126 2.0129C14.5988 2.00503 14.5833 2.00077 14.5675 2.00053H2.09558C2.07967 2.00078 2.06408 2.00512 2.05032 2.01312C2.03657 2.02113 2.02508 2.03253 2.01702 2.04625C2.00815 2.05943 2.00255 2.07453 2.00068 2.09031C1.99883 2.10608 2.00075 2.12208 2.0063 2.13696L5.70481 11.9368C5.71221 11.9545 5.72458 11.9698 5.74041 11.9807C5.75624 11.9917 5.77488 11.9977 5.79409 11.9983H14.1583L11.8484 18.5139L10.5854 14.9253C10.5794 14.9066 10.5675 14.8903 10.5517 14.8788C10.5357 14.8673 10.5165 14.8609 10.4969 14.8611L6.99264 14.8574C6.97714 14.8571 6.96181 14.8609 6.94826 14.8684C6.93469 14.8759 6.92339 14.8869 6.91551 14.9003C6.90663 14.9141 6.90109 14.9296 6.89936 14.9459C6.89761 14.9623 6.89973 14.9786 6.90551 14.9939L9.44622 21.9352C9.45256 21.9538 9.46456 21.9702 9.48039 21.9817C9.49622 21.9932 9.51522 21.9995 9.53472 21.9995H14.1418C14.1613 21.9997 14.1803 21.9937 14.1962 21.9823C14.2118 21.9712 14.2237 21.9555 14.2303 21.9373L19.1124 8.59037C19.1239 8.56037 19.1296 8.50837 19.1124 8.48187C19.1017 8.4662 19.0646 8.42904 19.0239 8.42904Z" fill="#D8191E"/>
</svg>

<svg xmlns="http://www.w3.org/2000/svg" width="24" height="24" fill="none" viewBox="0 0 24 24">
    <path fill="#D8191E" d="m21.995 2.111-1.246 2.694a.1.1 0 0 1-.037.04.1.1 0 0 1-.052.013h-3.565a.1.1 0 0 1-.081-.039.07.07 0 0 1-.004-.08l.004-.006 1.293-2.68A.09.09 0 0 1 18.395 2h3.51a.1.1 0 0 1 .08.037q.012.016.014.036a.1.1 0 0 1-.005.037m-2.97 6.32H8.157L6.993 5.572h6.418c.04 0 .075-.047.089-.086l1.157-3.349a.1.1 0 0 0-.01-.091.1.1 0 0 0-.08-.045H2.097a.1.1 0 0 0-.079.045.1.1 0 0 0-.01.091l3.698 9.8a.1.1 0 0 0 .09.061h8.363l-2.31 6.516-1.263-3.589a.09.09 0 0 0-.088-.064l-3.504-.004a.09.09 0 0 0-.077.043.1.1 0 0 0-.01.094l2.54 6.941a.1.1 0 0 0 .034.047.1.1 0 0 0 .055.018h4.607q.03 0 .054-.018a.1.1 0 0 0 .034-.045L19.112 8.59c.012-.03.018-.082 0-.108-.01-.016-.047-.053-.088-.053"/>
</svg>
